X: 4146
T: Blue Eyed Stranger
R: reel
M: 4/4
K: Gmajor
|:D|G2 D2 D2 GF|EDEF G2 GA|B2 d2 cBAG|1 E2 F2 G3:|2 E2 F2 G3 z||
|:GABc d2 d2|edcB A2 A2|GABc d2 d2|B3 c d2 BA|
GABc d2 d2|edcB A2 GA|B2 d2 cBAG|1 E2 F2 G3 z:|2 E2 F2 G3||

